neru-light-classic/32x32/apps/mixxx.svg

<?xml version="1.0" encoding="UTF-8" standalone="no"?>
<svg
   xmlns:dc="http://purl.org/dc/elements/1.1/"
   xmlns:cc="http://creativecommons.org/ns#"
   xmlns:rdf="http://www.w3.org/1999/02/22-rdf-syntax-ns#"
   xmlns:svg="http://www.w3.org/2000/svg"
   xmlns="http://www.w3.org/2000/svg"
   xmlns:sodipodi="http://sodipodi.sourceforge.net/DTD/sodipodi-0.dtd"
   xmlns:inkscape="http://www.inkscape.org/namespaces/inkscape"
   height="32"
   width="32"
   version="1"
   id="svg23"
   sodipodi:docname="mixxx.svg"
   inkscape:version="0.92.2 2405546, 2018-03-11">
  <metadata
     id="metadata27">
    <rdf:RDF>
      <cc:Work
         rdf:about="">
        <dc:format>image/svg+xml</dc:format>
        <dc:type
           rdf:resource="http://purl.org/dc/dcmitype/StillImage" />
      </cc:Work>
    </rdf:RDF>
  </metadata>
  <sodipodi:namedview
     pagecolor="#ffffff"
     bordercolor="#666666"
     borderopacity="1"
     objecttolerance="10"
     gridtolerance="10"
     guidetolerance="10"
     inkscape:pageopacity="0"
     inkscape:pageshadow="2"
     inkscape:window-width="1680"
     inkscape:window-height="972"
     id="namedview25"
     showgrid="false"
     inkscape:zoom="5.6568543"
     inkscape:cx="31.068221"
     inkscape:cy="32.303152"
     inkscape:window-x="1280"
     inkscape:window-y="0"
     inkscape:window-maximized="1"
     inkscape:current-layer="svg23" />
  <defs
     id="defs7">
    <linearGradient
       id="linearGradient4282"
       y2="506.8"
       gradientUnits="userSpaceOnUse"
       y1="540.8"
       gradientTransform="matrix(0.08468141,0,0,0.08468141,-18.597377,-60.354634)"
       x2="409.57"
       x1="409.57">
      <stop
         stop-color="#2a2c2f"
         offset="0"
         id="stop2" />
      <stop
         stop-color="#424649"
         offset="1"
         id="stop4" />
    </linearGradient>
  </defs>
  <rect
     style="opacity:1;fill:#333333;fill-opacity:1;fill-rule:evenodd;stroke:none;stroke-width:1.03534329;stroke-linecap:round;stroke-linejoin:bevel;stroke-miterlimit:4;stroke-dasharray:none;stroke-dashoffset:0;stroke-opacity:1"
     id="rect4497-3"
     width="28.203388"
     height="28.203388"
     x="1.8983059"
     y="1.8983059"
     ry="5.575182" />
  <g
     id="g955">
    <path
       id="rect831"
       d="M 11.789062 7.1054688 C 10.980277 7.1054688 10.328125 7.7556676 10.328125 8.5644531 L 10.328125 12.382812 L 6.6503906 12.382812 C 6.1993371 12.382812 5.8359375 12.746212 5.8359375 13.197266 C 5.8359375 13.648319 6.1993371 14.011719 6.6503906 14.011719 L 10.328125 14.011719 L 10.328125 17.830078 C 10.328125 18.638864 10.980277 19.289062 11.789062 19.289062 L 20.210938 19.289062 C 21.019723 19.289062 21.671875 18.638864 21.671875 17.830078 L 21.671875 14.011719 L 25.349609 14.011719 C 25.800663 14.011719 26.164062 13.648319 26.164062 13.197266 C 26.164062 12.746212 25.800663 12.382812 25.349609 12.382812 L 21.671875 12.382812 L 21.671875 8.5644531 C 21.671875 7.7556676 21.019723 7.1054688 20.210938 7.1054688 L 11.789062 7.1054688 z "
       style="fill:#ffffff;fill-opacity:1;stroke:none;stroke-width:0.58563536;stroke-opacity:1" />
    <rect
       ry="1.4599011"
       y="8.2276669"
       x="12.602921"
       height="7.3556585"
       width="6.794158"
       id="rect837"
       style="fill:#333333;fill-opacity:1;stroke:none;stroke-width:0.58563536;stroke-opacity:1" />
    <rect
       ry="0.70187587"
       y="9.4068193"
       x="15.298124"
       height="5.2219558"
       width="1.4037517"
       id="rect842"
       style="fill:#ffffff;fill-opacity:1;stroke:none;stroke-width:0.58563536;stroke-opacity:1" />
    <g
       transform="translate(-0.19592999)"
       style="fill:#ffffff"
       id="g940">
      <rect
         style="fill:#ffffff;fill-opacity:1;stroke:none;stroke-width:0.58563536;stroke-opacity:1"
         id="rect844"
         width="0.72995085"
         height="4.0989552"
         x="15.830954"
         y="20.412235"
         ry="0.36497542" />
      <rect
         style="fill:#ffffff;fill-opacity:1;stroke:none;stroke-width:0.58563536;stroke-opacity:1"
         id="rect844-3"
         width="0.72995085"
         height="4.0989552"
         x="24.899187"
         y="20.412235"
         ry="0.36497542" />
      <rect
         style="fill:#ffffff;fill-opacity:1;stroke:none;stroke-width:0.58563536;stroke-opacity:1"
         id="rect844-6"
         width="0.72995085"
         height="4.0989552"
         x="6.7627215"
         y="20.412235"
         ry="0.36497542" />
      <rect
         style="fill:#ffffff;fill-opacity:1;stroke:none;stroke-width:0.50833172;stroke-opacity:1"
         id="rect844-7"
         width="0.72995085"
         height="3.0882537"
         x="9.0297794"
         y="20.412235"
         ry="0.2749815" />
      <rect
         style="fill:#ffffff;fill-opacity:1;stroke:none;stroke-width:0.50833172;stroke-opacity:1"
         id="rect844-7-5"
         width="0.72995085"
         height="3.0882537"
         x="22.632128"
         y="20.412235"
         ry="0.2749815" />
      <rect
         style="fill:#ffffff;fill-opacity:1;stroke:none;stroke-width:0.45980334;stroke-opacity:1"
         id="rect844-7-3"
         width="0.72995085"
         height="2.5267529"
         x="20.36507"
         y="20.412235"
         ry="0.22498485" />
      <rect
         style="fill:#ffffff;fill-opacity:1;stroke:none;stroke-width:0.45980334;stroke-opacity:1"
         id="rect844-7-3-5"
         width="0.72995085"
         height="2.5267529"
         x="11.296838"
         y="20.412235"
         ry="0.22498485" />
      <rect
         style="fill:#ffffff;fill-opacity:1;stroke:none;stroke-width:0.40550843;stroke-opacity:1"
         id="rect844-7-3-6"
         width="0.72995085"
         height="1.9652523"
         x="13.563896"
         y="20.412235"
         ry="0.17498823" />
      <rect
         style="fill:#ffffff;fill-opacity:1;stroke:none;stroke-width:0.40550843;stroke-opacity:1"
         id="rect844-7-3-6-2"
         width="0.72995085"
         height="1.9652523"
         x="18.098013"
         y="20.412235"
         ry="0.17498823" />
    </g>
  </g>
</svg>

<svg xmlns="http://www.w3.org/2000/svg" height="32" width="32" version="1"><rect width="28.203" height="28.203" x="1.898" y="1.898" ry="5.575" fill="#333" fill-rule="evenodd"/><path d="M11.79 7.105c-.81 0-1.462.65-1.462 1.46v3.818H6.65a.813.813 0 0 0-.814.814c0 .451.363.815.814.815h3.678v3.818c0 .809.652 1.46 1.461 1.46h8.422c.809 0 1.46-.651 1.46-1.46v-3.818h3.679a.813.813 0 0 0 .814-.815.813.813 0 0 0-.814-.814h-3.678V8.564c0-.808-.652-1.459-1.461-1.459h-8.422z" fill="#fff"/><rect ry="1.46" y="8.228" x="12.603" height="7.356" width="6.794" fill="#333"/><rect ry=".702" y="9.407" x="15.298" height="5.222" width="1.404" fill="#fff"/><g transform="translate(-.196)" fill="#fff"><rect width=".73" height="4.099" x="15.831" y="20.412" ry=".365"/><rect width=".73" height="4.099" x="24.899" y="20.412" ry=".365"/><rect width=".73" height="4.099" x="6.763" y="20.412" ry=".365"/><rect width=".73" height="3.088" x="9.03" y="20.412" ry=".275"/><rect width=".73" height="3.088" x="22.632" y="20.412" ry=".275"/><rect width=".73" height="2.527" x="20.365" y="20.412" ry=".225"/><rect width=".73" height="2.527" x="11.297" y="20.412" ry=".225"/><rect width=".73" height="1.965" x="13.564" y="20.412" ry=".175"/><rect width=".73" height="1.965" x="18.098" y="20.412" ry=".175"/></g></svg>
